svg/google_assistant.svg

<svg xmlns="http://www.w3.org/2000/svg" viewBox="0 0 24 24"><path d="M7 2a6 6 0 0 0-6 6 6 6 0 0 0 6 6 6 6 0 0 0 6-6 6 6 0 0 0-6-6m14.5 4A1.5 1.5 0 0 0 20 7.5 1.5 1.5 0 0 0 21.5 9 1.5 1.5 0 0 0 23 7.5 1.5 1.5 0 0 0 21.5 6M17 8a3 3 0 0 0-3 3 3 3 0 0 0 3 3 3 3 0 0 0 3-3 3 3 0 0 0-3-3m0 7a3.5 3.5 0 0 0-3.5 3.5A3.5 3.5 0 0 0 17 22a3.5 3.5 0 0 0 3.5-3.5A3.5 3.5 0 0 0 17 15"/></svg>

<?xml version="1.0" encoding="UTF-8"?><!DOCTYPE svg PUBLIC "-//W3C//DTD SVG 1.1//EN" "http://www.w3.org/Graphics/SVG/1.1/DTD/svg11.dtd"><svg xmlns="http://www.w3.org/2000/svg" xmlns:xlink="http://www.w3.org/1999/xlink" version="1.1" id="mdi-google-assistant" width="24" height="24" viewBox="0 0 24 24"><path d="M7,2A6,6 0 0,0 1,8A6,6 0 0,0 7,14A6,6 0 0,0 13,8A6,6 0 0,0 7,2M21.5,6A1.5,1.5 0 0,0 20,7.5A1.5,1.5 0 0,0 21.5,9A1.5,1.5 0 0,0 23,7.5A1.5,1.5 0 0,0 21.5,6M17,8A3,3 0 0,0 14,11A3,3 0 0,0 17,14A3,3 0 0,0 20,11A3,3 0 0,0 17,8M17,15A3.5,3.5 0 0,0 13.5,18.5A3.5,3.5 0 0,0 17,22A3.5,3.5 0 0,0 20.5,18.5A3.5,3.5 0 0,0 17,15Z" /></svg>
